resources/icons/16px/id-number.svg

<svg xmlns="http://www.w3.org/2000/svg" viewBox="0 0 16 16">
  <path d="M2 5v7h12V5zm0-2h12c1.1 0 2 .9 2 2v7c0 1.1-.9 2-2 2H2c-1.1 0-2-.9-2-2V5c0-1.1.9-2 2-2"/>
  <path d="M7.9 10.48c-.14-.33-.84-.55-1.3-.75s-.4-.33-.42-.5v-.07c.16-.14.29-.33.37-.56 0 0 0-.01.01-.02.02-.05.03-.1.05-.15.1-.01.16-.13.19-.23.03-.04.07-.15.06-.27-.02-.16-.08-.24-.15-.26v-.03c0-.2-.02-.48-.05-.67-.01-.05-.02-.1-.03-.16-.07-.23-.21-.44-.4-.58-.2-.15-.48-.23-.73-.23s-.53.08-.72.23c-.19.14-.33.35-.4.58-.02.05-.03.1-.03.16-.05.18-.06.47-.06.67v.03c-.07.03-.14.1-.15.26-.02.12.03.22.06.27.02.1.09.22.2.24.01.05.03.1.05.15v.01c.08.23.22.42.38.56v.07c-.02.17.03.29-.43.5-.46.2-1.16.42-1.3.75s-.09.52-.09.52H8c-.01 0 .05-.19-.1-.52M10 6h2c.55 0 1 .45 1 1s-.45 1-1 1h-2c-.55 0-1-.45-1-1s.45-1 1-1M10 9h2c.55 0 1 .45 1 1s-.45 1-1 1h-2c-.55 0-1-.45-1-1s.45-1 1-1"/>
</svg>

<?xml version="1.0" encoding="utf-8"?>
<!-- Generator: Adobe Illustrator 18.0.0, SVG Export Plug-In . SVG Version: 6.00 Build 0)  -->
<svg version="1.1" id="Layer_1" xmlns="http://www.w3.org/2000/svg" xmlns:xlink="http://www.w3.org/1999/xlink" x="0px" y="0px"
	 viewBox="0 0 16 16" enable-background="new 0 0 16 16" xml:space="preserve">
<g id="id_number_2_">
	<g id="pt-icon-id-number">
		<path id="Rectangle-4" d="M2,5v7h12V5H2z M2,3h12c1.1,0,2,0.9,2,2v7c0,1.1-0.9,2-2,2H2c-1.1,0-2-0.9-2-2V5C0,3.9,0.9,3,2,3z"/>
		<path id="Shape_6_" d="M7.9,10.48c-0.14-0.33-0.84-0.55-1.3-0.75c-0.46-0.2-0.4-0.33-0.42-0.5c0-0.02,0-0.05,0-0.07
			C6.34,9.02,6.47,8.83,6.55,8.6c0,0,0-0.01,0.01-0.02c0.02-0.05,0.03-0.1,0.05-0.15C6.71,8.42,6.77,8.3,6.8,8.2
			c0.03-0.04,0.07-0.15,0.06-0.27C6.84,7.77,6.78,7.69,6.71,7.67V7.64c0-0.2-0.02-0.48-0.05-0.67c-0.01-0.05-0.02-0.1-0.03-0.16
			c-0.07-0.23-0.21-0.44-0.4-0.58C6.03,6.08,5.75,6,5.5,6S4.97,6.08,4.78,6.23c-0.19,0.14-0.33,0.35-0.4,0.58
			c-0.02,0.05-0.03,0.1-0.03,0.16C4.3,7.15,4.29,7.44,4.29,7.64v0.03c-0.07,0.03-0.14,0.1-0.15,0.26C4.12,8.05,4.17,8.15,4.2,8.2
			C4.22,8.3,4.29,8.42,4.4,8.44c0.01,0.05,0.03,0.1,0.05,0.15c0,0,0,0.01,0,0.01l0,0c0.08,0.23,0.22,0.42,0.38,0.56
			c0,0.02,0,0.04,0,0.07C4.81,9.4,4.86,9.52,4.4,9.73c-0.46,0.2-1.16,0.42-1.3,0.75S3.01,11,3.01,11H8C7.99,11,8.05,10.81,7.9,10.48
			L7.9,10.48z"/>
		<path id="Rectangle-3-Copy" d="M10,6h2c0.55,0,1,0.45,1,1l0,0c0,0.55-0.45,1-1,1h-2C9.45,8,9,7.55,9,7l0,0C9,6.45,9.45,6,10,6z"/>
		<path id="Rectangle-3-Copy_1_" d="M10,9h2c0.55,0,1,0.45,1,1l0,0c0,0.55-0.45,1-1,1h-2c-0.55,0-1-0.45-1-1l0,0C9,9.45,9.45,9,10,9
			z"/>
	</g>
</g>
</svg>
